X:1
T:Symphony No. 6 in F Major
T:"Pastoral" Fifth Movement
T:Ludwig van Beethoven
T:Adp. from piano arrangements by Ernst Pauer and Franz Liszt
%%score { ( 1 2 6 ) | ( 3 4 5 ) }
L:1/8
Q:1/4=90
M:6/8
K:F
V:1 treble nm="Piano"
V:2 treble 
V:6 treble 
V:3 bass 
V:4 bass 
V:5 bass 
V:1
"^Allegretto"!pp! c'2 z z2 z | c3 .G2 .e | cGe cGe | cGe cGc | [Gc]3 C2 c | G3 C2 c | GCc GCc | %7
!<(! G[Q:1/4=80]Cc [FA][Q:1/4=70]Cc!<)! |!p![Q:1/4=90] [Aa]3 f2 c' | a3 f2 c | f2 a c'2 a | %11
 b3- b2 g | b3 g2 c' | a3 f2 a | g2 d e2 c | c f2- f2!mp! c | %16
 z/!pp! a/f/a/f/a/!mp! z/!pp! a/f/a/!mp! z | z/!pp! a/f/a/f/a/!mp! z/!pp! a/f/a/!mp! z | %18
 z/!pp! a/f/a/!mp! z z/!pp! a/f/a/!mp! z | z/!pp! b/f/b/f/b/!mp! z/!pp! b/f/b/!mp! z | %20
!mp! z/!pp! b/g/b/g/b/!mp! z/!pp! b/g/b/!mp! z | z/!pp! c'/a/c'/a/c'/!mp! z/!pp! d'/a/d'/!mp! z | %22
 z/!pp! d'/g/d'/!mp! z z/!pp! c'/g/c'/!mp! z | z z/!pp! c'/a/c'/ a/c'/a/c'/!mf! z | %24
!p! (3[c'f']/a/f/(3[c'f']/a/f/(3[c'f']/a/f/ (3[c'f']/a/f/(3[c'f']/a/f/(3[c'f']/a/f/ | %25
 (3[c'f']/a/f/(3[c'f']/a/f/(3[c'f']/a/f/ (3[c'f']/a/f/(3[c'f']/a/f/(3[c'f']/a/f/ | %26
 (3[c'f']/a/f/(3[c'f']/a/f/(3[c'f']/a/f/ (3[c'f']/a/f/(3[c'f']/a/f/(3[c'f']/a/f/ | %27
 (3[d'f']/b/f/(3[d'f']/b/f/(3[d'f']/b/f/ (3[d'f']/b/f/(3[d'f']/b/f/(3g'/c'/b/ | %28
 (3g'/c'/b/(3g'/c'/b/(3g'/c'/b/ (3g'/c'/b/(3g'/c'/b/(3g'/c'/b/ | %29
 (3g'/c'/a/(3[c'f']/a/f/(3[c'f']/a/f/ (3[d'f']/a/f/(3[d'f']/a/f/(3[c'f']/a/f/ | %30
 (3f'/d'/g/(3f'/d'/g/(3f'/d'/g/ (3e'/c'/g/(3e'/c'/g/(3e'/c'/g/ | %31
 [af']!mp! F/C/A,/C/ B,/C/E/C/B,/C/ | A,/C/F/C/A,/C/ z2!f! c |!f! c [Ff]2 c [Gg]2 | %34
 c [Aa]2 [cc']bg/e/ |!mp! A,/C/F/C/A,/C/ G,/C/E/C/E/C/ | A,/C/F/C/F/C/ z2!f! c | cf Tf cg Tg | %38
 ca Ta c'b.g/.e/ | D!f!C.A,/.F,/ e!f!d.=B/.G/ | F!f!E.C/.G,/ g!f!f.d/.=B/ | [Gca]g.e/.c/ AG.E/.C/ | %42
 A,G,!mp! [ce] eeTe |!f! [=Bg]f.d/.B/ GF.D/.=B,/ | G,F,!mp! [=Bd] ddTd | %45
!f! [ca]/g/.^f/.g/.e/.c/ A/G/.^F/.G/.E/.C/ | z2!mp! [ce] eeTe | %47
!f! [=Bg]/=f/.e/.f/.d/.B/ G/F/.E/.F/.D/.=B,/ | z2!mp! [=Bd] ddTd | [ce]2 z!p! [Ff][Ee][Ac-a] | %50
 [Gcg]!mp![=Bf=b]!mf![cec']!f! [dfd']2 [dfd'] | [cec'] z!p! [Ee] [Ff][Ee][Aca] | %52
 [Gcg]!mp![=Bf=b]!mf![cec']!f! [dfd']2 [dfgd'] |!ff! !^![cegc']3 .[Geg] z [ege'] | %54
 !^![dfad']3 .[Afa] z [faf'] |!f! c'3-!p! c'ge' | c'ge' c'ge' |"_dim." c'ge' gec' |!pp! gec' ecg | %59
 ecg cGe | cGe cGe | GC!pp!c GCc | .C/.D/.E/!p!.F/.G/.A/ ._B/.c/.d/.e/.f/.g/ |!p! [Aa]3 f2 c' | %64
 a3 f2 [Ac] | Tf2 a c'2 a | [Bb]3- [Bb]2 g | b3 g2 c' |!p! a3 f2 a | g2 d e2 c | c f2- f2 a | %71
 z/!pp! a/f/a/f/a/!p! z/!pp! a/f/a/!mp! z |!mp! z/!pp! a/f/a/f/a/!mp! z/!pp! a/f/a/!mp! z | %73
 z/!p! a/f/a/!mf! z z/!p! a/f/a/!mf! z | z/!p! a/f/a/f/a/ z/!mp! a/f/a/!f! z | %75
 z/!mp! a/f/a/!f! z z/!mp! a/f/a/!f! z | z/!mp! a/f/a/f/a/ z/ a/f/a/!f! z | A2 c _e2 f | %78
 a2 c' _e'2 a | [dfb]2!p! [Fd] [Fd]2!mp! [_Ec] | [DB]2 [_Ec]!mf! [Fd]2!f! [DFB] | %81
 [_EFB]2!mp! A!p! [FA]2!mp! [G=B] |{/[=Bd]} [Ac]2!mf! [GB] [Ac]2!f! [FBd] | %83
 [F=Bd]2!mp! [c_e]!p! [ce]2!mp! [_Bd] | [Ac]2!mf! [Bd] [c_e]2!f! [FAf] | %85
!mp! [FBd]2!p! [DBd]!mp! [_Ec_e]2!f! [Fdf] |!mp! [G_eg]2!mf! [eg] [gb]2!mp! [Geg] | %87
 [Fdf]2!mf! [df] [fb]2!mp! [Fdf] | [_Ec_e]2 [Ece] [Fdf]2 [Ece] | d/B/A/B/d/B/ _e/B/e/!mf!B/f/B/ | %90
!f! [G_eg]2 g{/g} [Bb]2 [eg] |!ff! [df]2 f{/f} [Bb]2 [df] | [B=e]2 e [Bb]2 [Be] | %93
!>(! [_A_df]2 f _g2!>)!!p! _e |!p! _d3 _A2 f | =A3 F2 c | B3 F2 _d | _A3 G2 =d | %98
 =e/!pp! .D/.E/.F/.G/.^F/ .A/.G/.=F/.E/.D/.C/ | .=B,/.C/.D/.E/.F/.E/ .G/.F/.E/.D/.C/.B,/ | %100
!mp! .=B/.c/.d/.e/.f/.e/ .g/.f/.e/.d/.c/.B/ | .c/.d/.e/.f/.g/.^f/ .a/.g/.=f/.e/.d/.c/ | %102
!pp! .C/.D/.E/.F/.G/.^F/ .A/.G/.=F/.E/.D/.C/ | .=B,/.C/.D/.E/.F/.E/ .G/.F/.E/.D/.C/.B,/ | %104
!mp! .=B/.c/.d/.e/.f/.e/ .g/.f/.e/.d/.c/.B/ | .c/.d/.e/.f/.g/.^f/ .a/.g/.=f/!mf!.e/.d/.c/ | %106
 .C/.D/.E/.F/.G/.^F/ .A/.G/.=F/.E/.D/.C/ | .C/.D/.E/.F/.G/.^F/ .A/.G/.=F/.E/.D/.C/ | %108
!f! [cc']3!mf! g2 [ee'] | [cc']3!mp! g2 [ee'] |!p! [cc']g[ee'] [cc']g[ee'] | %111
 [cc']g[ee'] [cc']g[ee'] |!pp! .[cc'].G.e .c.G.e | .c.G.e!pp! c'/!<(!b/a/g/f/e/ | %114
 d/c/B/A/G/F/ E/D/C/B,/A,/G,/ | B,/C/E/G/B/c/ e/g/b/g/c'/!<)!!mp!b/ | %116
!pp! a/b/a/g/f/e/ f/g/a/b/c'/b/ | a/b/a/g/f/e/ f/e/f/c/d/e/ | f/g/f/e/f/g/ a/b/c'/=b/c'/a/ | %119
 _b/c'/d'/c'/b/c'/ b/c'/b/a/g/a/ | b/c'/b/a/g/^f/ g/a/b/=b/c'/_b/ | a/b/a/g/a/g/ f/g/f/e/f/a/ | %122
 a/g/f/g/d/g/ f/e/d/e/c/e/ | c/f/c/!p!B/"_cresc."A/B/ c/d/e/f/g/a/ | f x x2 x .c' | x4 x .f | %126
 x4 x .f | x4 x .g | x4 x .c' | x2 .a .a.f.c' | x2 .g .[Bg].[ce].[Bgc'] | %131
 [Afa] z [FAf] .[FAf].[Aca].[cfc'] | .[faf']!ff! A/B/A/G/ !^!F/G/A/B/c/B/ | %133
 .[faf']!ff! A/B/A/G/ !^!F/E/F/C/D/E/ | .[faf']!ff! A/B/A/G/ !^!A/B/c/=B/c/A/ | %135
 .[fbf']!ff! B/c/d/c/ !^!B/c/A/B/ .[ege'] | .[gbg']!ff! B/A/G/^F/ !^!G/A/B/G/!8va(! .[gbe'g'] | %137
 [gac'g']!8va)!!ff! A/B/A/G/ [fad'f']!ff! F/E/F/A/ | [fgd'f']!f! A/G/[DF]/G/ [egbe']!f! D/E/C/E/ | %139
 .[faf']!mf! F/C/A,/C/ B,/C/E/C/B,/C/ | A,/C/F/C/A,/C/ x2!f! c | [CFc] [Ff]2 [CGc] [Gg]2 | %142
 [CAc] [Aa]2 [cec'][Bb].[Gg]/.[Ee]/ |!mp! A,/C/F/C/A,/C/ B,/C/E/C/B,/C/ | %144
 A,/C/F/C/F/C/ !>!!^!C!>!=B, x |!f! [dd'][cc'][Aa]/[Ff]/ !>!!^!E!>!D x | %146
 [ff']!f![ee'].[cc']/.[Bb]/ GF.D/.=B,/ | %147
!8va(! [aa']!f![gg'].[ee']/.[cc']/ [bb']!f![aa'].[ff']/.[cc']/ | %148
 [c'e'c'']!f![bb'].[gg']/.[ee']/ [c'f'_a'c'']!f![=b=b'].[bb']/.[bb']/ | %149
 [f'a']2 x!8va)! !^![dd'][cc'].[Aa]/.[Ff]/ | %150
!f! [FA]2!8va(! .[af'a'] x2 (5:4:5a'/4b'/4a'/4g'/4a'/4 | %151
!ff! !^![c'e'c''][bb'].[gg']/.[ee']/!8va)! !^![cc'][Bb].[Gg]/.[Ee]/ | %152
 !^!cB!f!!8va(! x2 x (5:4:5g'/4a'/4g'/4^f'/4g'/4 | %153
!ff! !^![d'f'd'']/[c'c'']/.[=b=b']/.[c'c'']/.[aa']/.[ff']/!8va)! .[dd']/.[cc']/.[=B=b]/.[cc']/.[Aa]/.[Ff]/ | %154
!f! [FA]2!8va(! .[af'a'] x2 (5:4:5a'/4b'/4a'/4g'/4a'/4 | %155
!ff! !^![c'e'c'']/.[bb']/.[aa']/.[bb']/.[gg']/.[ee']/!8va)! !^![cc']/[Bb]/.[Aa]/.[Bb]/.[Gg]/.[Ee]/ | %156
 !^!c/B/A/B/!f!!8va(! x2 x x!8va)! | .[Afa]/!p! .F/E/F/G/F/ BAd | cef!f! [GBg]2 [GBg] | %159
 [Afa]2 A"_cresc." BAd | cef!f! !^![Geg]2 [Gg] |!ff! [Afa]3 [FAf] z .[cac'] | %162
 [Bdb]3 [GBg] z .[dd'] |!f! [Afa]3-!>(! [Afa]fc'!>)! |!p! afc'"_dim." fca | fca cAf | %166
!pp! cAf d=Bf | d=Bf dBf |!pp! d/[FG=B]/g/f/d/B/ z/ [FGB]/g/f/d/B/ | %169
 z/ [FG=B]/g/f/d/B/ z/ [FGB]/g/f/d/B/ | %170
!pp! z/"_cresc." [fg=b]/g'/f'/d'/[fgb]/ z/ [fgb]/g'/f'/d'/[fgb]/ | %171
 z/ [fg=b]/g'/f'/d'/[fgb]/ z/ [fgb]/g'/f'/d'/[fgb]/ | %172
 z/ [e_b]/g'/e'/[bc']/g/ z/ [e_b]/g'/e'/[bc']/g/ | %173
 z/ [e_b]/g'/e'/[bc']/g/ z/ [e_b]/g'/e'/[bc']/g/ | %174
!mf! (9:6:9[g'b']/[be']/[g'b']/[be']/[g'b']/[be']/[g'b']/[be']/[g'b']/(9:6:9[be']/[g'b']/[be']/[g'b']/[be']/[g'b']/[be']/[g'b']/[be']/ | %175
 (9:6:9[g'b']/[be']/[g'b']/[be']/[g'b']/[be']/[g'b']/[be']/[g'b']/(9:6:9[be']/[g'b']/[be']/[g'b']/[be']/[g'b']/[be']/[g'b']/[be']/ | %176
!ff! .[af'a']2 z4 | z6 | z6 | z6 | z6 | x4 x!p! C | ^F2"_cresc." A c2 [FA] | [GB]2 z z2 C | %184
!mp! E2 G B2 [EG] | [FA] [Ac][Ac] [Ac][FA][FAc] | ^f2"_cresc." [fa] [ac']2 [fa] | [gb]2 z2 z c | %188
 e2 [eg] [Bgb]2 [eg] | %189
!ff! [Afa][Acfa][cfac']!f! (9:6:9[ac'f']/f/[ac'f']/f/[ac'f']/f/[ac'f']/f/[ac'f']/ | %190
 (9:6:9[ac'f']/f/[ac'f']/f/[ac'f']/f/[ac'f']/f/[ac'f']/!8va(! [ac'f']/f/[ac'f']/f'/!ff![a'c''f'']!8va)! | %191
!ff! [Adfa][Adfa][cfac']!f! (9:6:9[ad'f']/f/[ad'f']/f/[ad'f']/f/[ad'f']/f/[ad'f']/ | %192
 (9:6:9[ad'f']/f/[ad'f']/f/[ad'f']/f/[ad'f']/f/[ad'f']/!8va(! [ad'f']/f/[ad'f']/f'/!ff![a'd''f'']!8va)! | %193
 [=Bdf=b][Bdfb][dfbd']!f! (9:6:9[bd'f']/f/[bd'f']/f/[bd'f']/f/[bd'f']/f/[bd'f']/ | %194
"_dim." (9:6:9[=bd'f']/f/[bd'f']/f/[bd'f']/f/[bd'f']/f/[bd'f']/!8va(! [bd'f']/f/[bd'f']/f'/!p!.[=b'd''f'']!8va)! | %195
!p! =B3 G2 d | =B3 G2 f |"_cresc." d=B=b fdd' | =bgd' bgd' | e'c'e' c'gc' | geg ece | %201
[I:staff +1] [C,E,G,]/[I:staff -1][Cc]/[I:staff +1]B,,/[I:staff -1][B,B]/[I:staff +1]C,/[I:staff -1][Cc]/[I:staff +1]B,,/[I:staff -1][B,B]/[I:staff +1]G,,/[I:staff -1][G,G]/[I:staff +1]B,,/[I:staff -1][B,B]/ | %202
[I:staff +1] G,,/[I:staff -1][G,G]/[I:staff +1]E,,/[I:staff -1][E,E]/[I:staff +1]G,,/[I:staff -1][G,G]/[I:staff +1] E,,/[I:staff -1][E,E]/[I:staff +1]C,,/[I:staff -1]C/!f! E/C/ | %203
 [G,B,]/C/E/G/B/G/ [CE]/G/B/c/e/c/ | [EGB]/c/e/g/b/c'/!8va(! e'/g'/[be'b']/g'/[be'b']/g'/!8va)! | %205
!ff! [af'a']2 z z2 z | z6 | z6 | z6 | z2 z z3/2[K:bass]!p! C,/D,/E,/ | %210
 F,/G,/A,/B,/C/B,/ A,/B,/[K:treble]"_cresc." z/ C/D/E/ | ^F/G/F/E/F/G/ A/B/c/B/c/A/ | %212
 B/c/B/A/B/A/ G/A/G/F/G/F/ | [CE]/[DF]/[CE]/[=B,D]/[CE]/[DF]/ [EG]/[FA]/[GB]/[FA]/[GB]/[EG]/ | %214
 [FA]/[GB]/ cc cA A | ^f/[eg]/[df]/[^ce]/[df]/[eg]/ [fa]/[gb]/[ac']/[gb]/[ac']/[fa]/ | %216
 [gb]/[ac']/[gb]/[fa]/[gb]/[fa]/ [eg]/[fa]/[eg]/[df]/[eg]/[df]/ | %217
 [ce]/[df]/[ce]/[=Bd]/[ce]/[df]/ [eg]/[fa]/[gb]/[ec']/[fd']/[ge']/ | %218
!f! (9:6:9[ac'f']/f/[ac'f']/f/[ac'f']/f/[ac'f']/f/[ac'f']/(9:6:9f/[ac'f']/f/[ac'f']/f/[ac'f']/f/[ac'f']/f/ | %219
 [ac'f']/f/[Acf]/F/[Acf]/f/!8va(![ac'f']/f/[ac'f']/f'/[a'c''f'']!8va)! | %220
!f! (9:6:9[ad'f']/f/[ad'f']/f/[ad'f']/f/[ad'f']/f/[ad'f']/(9:6:9f/[ad'f']/f/[ad'f']/f/[ad'f']/f/[ad'f']/f/ | %221
 [ad'f']/f/[Adf]/F/[Adf]/f/!8va(![ad'f']/f/[ad'f']/f'/[a'd''f'']!8va)! | %222
 (9:6:9[=bd'f']/f/[bd'f']/f/[bd'f']/f/[bd'f']/f/[bd'f']/ (9:6:9[bd'g']/f/[bd'g']/f/[bd'g']/f/[bd'g']/f/[bd'g']/ | %223
 [=bd'g']/g/[=Bdg]/G/[Bdg]/G/!8va(![bd'g']/g/[bd'g']/g'/[=b'd''f'']!8va)! | %224
 (9:6:9[_be'g']/g/[be'g']/g/[be'g']/g/[be'g']/g/[be'g']/(9:6:9g/[be'g']/g/[be'g']/g/[be'g']/g/[be'g']/g/ | %225
 [be'g']/g/[Beg]/G/[Beg]/g/!8va(! [be'g']/g/[be'g']/g'/[b'e''g'']!8va)! | %226
 [c'_e'g']/g/[c_eg]/G/[ceg]/g/!8va(![c'e'g']/g/[c'e'g']/g'/[c''_e''g'']!8va)! | %227
 [ac'f']/f/[Acf]/F/[Acf]/f/!8va(![ac'f']/f/[ac'f']/f'/[a'_c''e''] | _e'2 x d'2 x | %229
 c'2 x!8va)! b2 x |"_dim." a2 x g2 x | f2 x e2 x | d2 x c2 x |!p! c2 x B3 | B3 G3- | G3 G3 | %236
!pp! [A,F]3 [A,C]2 [FA] | [EG]6 | [EG]3 [CE]2 [GB] | [FA]6 |"_cresc." [FA]3 [FB]2 [CFc] | %241
!p! d3 d2 G | G3 GA{/c}B/A/ | A2 z z2 z |!f! [Afa]3 .[Bfb] z .[cfc'] | [dfd']3- [dfd']2!p! [FGdg] | %246
 g3 ga{/c'}b/a/ | a2 z z2 [C-FA] | [CEB]3- [CEB]2 [CEB] | [CFA]2 z z2 [Acfa] | %250
 [Gceb]3- [Gceb]2 [Gceb] | [Acfa]2 z z2!<(! [Acfa] | [Gceb]3- [Gceb]2 [Gceb]!<)! |!f! [cgbe']6- | %254
 [cgbe']6- | [c-gb-e'-]6 |!p! [cgbe']6 | [faf']6 | [faf']6 |!pp! [ff']6- | [ff']4 z2 | %261
[K:bass] F,/G,/A,/B,/C/=B,/ D/C/_B,/A,/G,/F,/ |!p![I:staff +1] FCA FC[I:staff -1][K:treble].[Aca] | %263
 .[FAf]2 z z2 z |] %264
V:2
 c3 .G2 .e | x6 | x6 | x6 | x6 | x6 | x6 | x6 | x6 | x6 | x6 | x6 | x6 | x6 | x6 | x6 | A3 F2 c | %17
 A3 F2 C | F2 A c2 A | B3- B2 G | B3 G2 c | A3 F2 A | G2 D E2 C | C F2- F2 A | x6 | x6 | x6 | x6 | %28
 x6 | x6 | x6 | x6 | x3 z/ G/E/C/E | x6 | x6 | x6 | x3 z/ G/E/C/E | c3 c3 | c3 x x2 | x6 | x6 | %41
 x6 | x3 ccc | x6 | x3 =BBB | x6 | x3 ccc | x6 | x3 =BBB | x6 | x6 | x6 | x6 | x6 | x6 | [ce]4 z2 | %56
 z6 | x6 | x6 | x6 | x6 | x6 | x6 | x6 | x6 | x6 | x6 | x6 | A3- A2 x | G3 G3 | x6 | A3 F2 c | %72
 A3 F2 C | F2 A c2 A | c3- c2 F | A2 c _e2 c | e3- e2 (3F/E/C/ | %77
 (3A/E/C/(3A/E/C/(3c/A/_E/ (3_e/c/F/(3e/c/F/(3f/e/A/ | %78
 (3f/c/A/(3f/c/A/(3a/_e/c/ (3c'/a/f/(3c'/a/f/(3f/e/c/ | x6 | x6 | x6 | x6 | x6 | x6 | x6 | x6 | %87
 x6 | x6 | D2 D _E2 F | x6 | x6 | x6 | x6 | x6 | x6 | x6 | [DF]3- [DF]3 | [EG]/ x/ x x4 | x6 | x6 | %101
 x6 | x6 | x6 | x6 | x6 | x6 | x6 | x6 | x6 | x6 | x6 | x6 | x6 | x6 | x6 | x6 | x6 | x6 | x6 | %120
 x6 | x6 | x6 | x6 | A/B/A/G/F/E/ F/G/A/B/c/B/ | %125
 A/B/A/G/F/E/ F/E/F/C/[I:staff +1]D/[I:staff -1]E/ | F/G/F/E/F/G/ A/B/c/=B/c/A/ | %127
 B/c/d/c/B/c/ B/c/B/A/G/A/ | B/c/B/A/G/^F/ G/A/B/=B/c/_B/ | A/B/A/G/[I:staff +1]A/G/ F/G/F/E/F/A/ | %130
[I:staff -1] A/G/F/G/[I:staff +1]D/G/ F/E/D/E/C/E/ | x6 |[I:staff -1] x2 x [A,C] x2 | %133
 x2 x [A,C] x2 | x2 x [CF] x2 | x2 x [DF] x2 | x2 x [CE] x2!8va(! | x!8va)! x5 | x6 | x6 | %140
 x2 x z/ G,/E/C/E/G/ | x6 | x6 | x6 | x3 F/F,/F/F,/F/=B,/ | x3 G/G,/G/G,/ x | x6 |!8va(! x6 | x6 | %149
 [d'd'']!ff![c'c''].[aa']/.[ff']/!8va)! x x2 | x3!8va(! .[af'a'].[af'a']f' | x3!8va)! x3 | %152
 [EG]2!8va(! .[ge'g'] .[ge'g'].[ge'g']e' | x3!8va)! x3 | x3!8va(! .[af'a'].[af'a']f' | %155
 x3!8va)! x3 | [EG]2!8va(! .[ge'g'] .[ge'g'].[ge'g'][f'a']/4[e'g']/4[d'f']/4[e'g']/4!8va)! | %157
 x3 D/"_cresc."F/C/F/d/F/ | c/F/B/c/A/c/ G/c/[GB]/c/G/c/ | A/F/E/F/G/!p!F/ D/F/C/F/D/F/ | %160
 C/F/B/c/A/c/ B/c/B/c/e/c/ | x6 | x6 | x6 | x6 | x6 | x6 | x6 | x6 | x6 | x6 | x6 | x6 | x6 | x6 | %175
 x6 | x6 | x6 | x6 | x6 | x6 | x6 | x6 | x6 | x6 | x6 | x3 c2 x | [B,D][GB][GB] [GB][EG][EG] | x6 | %189
 x6 | x3!8va(! x3!8va)! | x6 | x3!8va(! x3!8va)! | x6 | x3!8va(! x3!8va)! | x6 | x6 | x6 | x6 | %199
 x6 | x6 | x6 | x6 | x6 | x3!8va(! x3!8va)! | x6 | x6 | x6 | x6 | x9/2[K:bass] x3/2 | %210
 x4[K:treble] x2 | A,^F,F, x x2 | x B,B, x3 | x6 | x A/B/A/G/ ^F/G/A/[I:staff +1]G/^F/E/ | x6 | %216
 x6 | x6 | x6 | x3!8va(! x3!8va)! | x6 | x3!8va(! x3!8va)! | x6 | x3!8va(! x3!8va)! | x6 | %225
 x3!8va(! x3!8va)! | x3!8va(! x3!8va)! | x3!8va(! x3 | %228
[I:staff -1] [b_e']/f/[be']/f'/[b'_e'']/f'/ [fbd']/d/[fbd']/d'/[f'b'd'']/d'/ | %229
 [fc']/d/[fc']/d'/[f'c'']/f'/!8va)! [db]/B/[db]/b/[d'b']/b/ | %230
 [=ea]/B/[ea]/b/[e'a']/b/ [Beg]/G/[Beg]/g/[be'g']/g/ | %231
 [Bf]/G/[Bf]/g/[bf']/g/ [Be]/G/[Be]/g/[be']/g/ | [GBd]/E/[GBd]/e/[gbd']/e/ [Gc]/G/[Gc]/e/[gc']/e/ | %233
 [Gc]/"_dim."E/[Gc]/e/[gc']/e/ G/E/C/G/E/C/ | G/E/C/G/E/C/ E/C/B,/E/C/B,/ | %235
 E/C/B,/E/C/B,/ E/B,/G,/C/B,/G,/ | x6 | x6 | G,6 | x6 | x6 | [DF]6 | [CE]6 | [CF]2 x4 | x6 | x6 | %246
 [Gc]6 | [Ac]2 x4 | x6 | x6 | x6 | x6 | x6 | x6 | x6 | x6 | x6 | x6 | x6 | %259
 f/g/a/b/c'/=b/ d'/c'/_b/a/g/f/ | F/G/A/B/c/=B/ d/c/_B/A/G/F/ |[K:bass] x6 | x5[K:treble] x | x6 |] %264
V:3
!ped! [E,C]2 z z2 z | x6!ped-up! |!ped! [C,G,]6- | [C,G,]6!ped-up! |!ped! [F,,C,G,]6- | %5
 [F,,C,G,]6!ped-up! |!ped! [F,,C,G,]6- | [F,,C,G,]3!ped-up!!ped! !arpeggio![F,,C,A,]3!ped-up! | %8
!ped! [A,C]6-!ped-up! |!ped! [A,C]6-!ped-up! |!ped! [F,A,C]3- [F,A,C]2!ped-up!!ped! F, | %11
 [D,F,B,D]3- [D,F,B,D]2!ped-up! [E,G,B,C] |!ped! [G,B,C]6!ped-up! |!ped! [F,A,]6!ped-up! | %14
!ped! G,3!ped-up!!ped! G,2 z!ped-up! |!ped! [F,A,C]6!ped-up! | %16
!pp!!ped! [F,A,C][F,A,C][F,A,C] [F,A,C][F,A,C]!ped-up![F,A,C] | %17
!ped! [F,A,C][F,A,C][F,A,C] [F,A,C][F,A,C]!ped-up![F,A,] | %18
!ped! [F,A,C][F,A,C][F,A,C] [F,A,C][F,A,C]!ped-up![F,A,C] | %19
!ped! [D,F,B,D][D,F,B,D][D,F,B,D] [D,F,B,D][D,F,B,D]!ped-up![E,G,B,C] | %20
!ped! [E,G,B,C][E,G,B,C][E,G,B,C] [E,G,B,C][E,G,B,C]!ped-up![C,E,B,C] | %21
!ped! [F,A,C][F,A,C][F,A,C] [D,F,C][D,F,C]!ped-up![A,,F,] | %22
!ped! [B,,F,G,][B,,F,G,][B,,F,G,]!ped-up!!ped! [C,E,G,][C,E,G,][C,E,G,]!ped-up! | %23
!p!!ped! [F,,F,][F,A,][F,A,] [F,A,][F,A,]!ped-up![F,A,] |!f! A,3 F,2 C | A,3 F,2 C, | %26
!ped! F,2 A, C2 A,!ped-up! |!ped! B,3- B,2!ped-up! G, |!ped! B,3 G,2!ped-up! C | %29
!ped! A,3!ped-up!!ped! F,2!ped-up! A, |!ped! G,2 D,!ped-up!!ped! E,2 C,!ped-up! | %31
!f! [F,,C,] F,2!ped! C, G,2!ped-up! | C, A,2!ped! CB,G,/E,/!ped-up! | %33
!ped! z/!mp! F,/A,/C/A,/F,/!ped-up! z/ G,/B,/C/B,/G,/ | %34
!ped! z/ A,/C/A,/C/A,/!ped-up! z/ G,/B,/C/B,/C/ |!f! C,F, TF, C,G, TG, | %36
 C,A, TA,!ped! CB,G,/E,/!ped-up! |!ped! z/!mp! F,/A,/C/A,/F,/!ped-up! z/ G,/B,/C/B,/G,/ | %38
!ped! z/ F,/A,/C/A,/F,/!ped-up! z/ B,,/C,/E,/B,,/C,/ | C,/F,/C,/F,/C, =B,/D/B,/D/B,/D/ | %40
 E,/G,/E,/G,/E, F/G/F/G/ F,/G,/ | [E,,E,]3- [E,,E,]2 [C,E,] | %42
 [C,E,]2!f! .E,/.C,/ A,,G,,.E,,/.C,,/ |!mp!!ped! [G,,D,F,]3- [G,,D,F,]2 [G,,D,] | %44
 [G,,D,]2!ped-up!!f! .D,/.=B,,/ A,,G,,.F,,/.D,,/ |!mp! [E,G,]2 [E,G,] [E,G,]2 [E,G,] | %46
!f! A,/G,/.^F,/.G,/.E,/.C,/ A,,/G,,/.^F,,/.G,,/.E,,/.C,,/ |!mp! [D,F,]2 [D,F,] [D,F,]2 [D,F,] | %48
!f! A,/G,/.^F,/.G,/.=F,/.D,/ A,,/G,,/.^F,,/.G,,/.=F,,/.D,,/ | %49
 [C,,C,]/!p! C/=B,/C/D/C/ A,/C/G,/C/F,/C/ | %50
 E,/!mp!G,/D,/!mf!G,/C,/G,/!ped! =B,,/G,/B,,/D,/G,/=B,/!ped-up! | %51
 .[C,C]/!p! C/=B,/C/D/C/ A,/C/G,/C/"^cresc."F,/C/ | %52
!mp! E,/G,/!mf!D,/G,/C,/G,/!ped! G,,/=B,,/D,/G,/=B,/G,/!ped-up! | %53
!ped! [C,E,C]3 .[C,,C,]!ped-up! z [C,G,E] |!ped! [F,A,D]3 .[F,,D,A,]!ped-up! z [A,DF] | %55
!ped!{/G,,} [G,CE]6- | [G,CE]6- | [G,CE]6- | [G,CE]6- | [G,CE]3!ped-up!!ped! C,3- | %60
 C,3!ped-up!!ped! x3 |"^cresc." G,6!ped-up! | G,C,C G,C,C | %63
!pp!!ped! [A,C]3 z/ A,/C/A,/C/A,/!ped-up! |!ped! [A,C]3 z/ A,/C/F/C/F/!ped-up! | %65
!ped! [A,C]3 z/ A,/C/F/[I:staff -1]A/[I:staff +1]F/!ped-up! | %66
!ped! [F,B,D]3 z/ F,/B,/F,/!ped-up![B,C]/G,/ |!ped! [G,B,C]3 z/ G,/C/G,/!ped-up!C/G,/ | %68
!pp!!ped! A,3 z/ A,/D/F/[I:staff -1]A/F/!ped-up! | %69
[I:staff +1] [F,G,]3!ped! z/ G,/C/G,/C/G,/!ped-up! | %70
"^poco a poco crescendo"!ped! [A,C]3 z/ A,/C/A,/C/A,/!ped-up! | %71
!ped! [F,A,C][F,A,C][F,A,C] [F,A,C][F,A,C]!ped-up![F,A,C] | %72
!ped! [F,A,C][F,A,C][F,A,C] [F,A,C][F,A,C]!ped-up![F,A,] | %73
!ped! [F,A,C]!p![F,A,C][F,A,C] [F,A,C][F,A,C]!ped-up![F,A,C] | %74
!ped! [F,A,C][F,A,C][F,A,C] [F,A,C][F,A,C]!ped-up![F,A,C] | %75
!ped! [F,A,C]!mp![F,A,C][F,A,C] [F,A,C][F,A,C]!ped-up! [F,,F,] | %76
!ped! [A,,A,]2!f! [C,C] [_E,_E]2!ped-up!!ped! C, | [_E,_E]2 [C,C] [A,,A,]2 [F,,F,]!ped-up! | %78
!ped! [_E,,_E,]2 [C,,C,] [A,,,A,,]2 [F,,,F,,]!ped-up! | %79
 z/!pp!!ped! F,/B,/F,/!ped-up!D,/F,/!ped! D,/F,/B,/[I:staff -1]D/!ped-up![I:staff +1]_E,/C/ | %80
!ped! D,/F,/B,/!p!D,/!ped-up!_E,/C/!ped! F,/B,/D/!mp!F,/!ped-up!F,,/F,/ | %81
!ped! _E,/!p!F,/B,/E,/F,/A,/!ped-up!!ped! C,/!pp!F,/A,/F,/!ped-up!G,/=B,/ | %82
!ped! F,/A,/C/F,/G,/=B,/!ped-up! F,/A,/C/!ped!F,/B,/D/ | %83
 F,/=B,/D/!ped-up!F,/C/_E/!ped! F,/C/E/F,/_B,/D/!ped-up! | %84
 F,/A,/C/F,/B,/D/!ped! F,/C/_E/F,/A,/C/!ped-up! | %85
!ped! B,,/F,/D/D,/F,/B,/!ped-up! C,/_E,/B,/D,/F,/B,/ | %86
!ped! _E,/G,/B,/E,/G,/B,/!ped-up! E,/G,/B,/E,/G,/B,/ | %87
!ped! D,/F,/B,/D,/F,/B,/ D,/F,/B,/D,/F,/B,/!ped-up! | %88
!ped! F,,/F,/A,/C,/F,/A,/!ped-up! C,/F,/A,/C,/F,/A,/ | [B,,B,]2 [B,,D,] [C,_E,]2 [B,,D,F,] | %90
!ped! _E,/B,,/E,/B,,/E,/B,,/ E,/B,,/E,/B,,/E,/B,,/!ped-up! | %91
!ped! [D,F,]/B,,/D,/B,,/D,/B,,/ D,/B,,/D,/B,,/D,/B,,/!ped-up! | %92
!ff!!ped! _G,,/_D,/B,,/D,/B,,/D,/ B,,/D,/B,,/D,/!ped-up!B,,/D,/ | %93
 _D,/F,/!f!D,/F,/D,/!mf!F,/ C,/!mp!_G,/C,/G,/C,/G,/ | %94
!pp!!ped! _D,/F,/D,/F,/D,/F,/ D,/F,/D,/F,/!ped-up!D,/F,/ | %95
!ped! _E,/F,/E,/F,/E,/F,/ E,/F,/E,/F,/!ped-up!E,/F,/ | %96
!ped! _D,/F,/D,/F,/D,/F,/ D,/F,/D,/F,/!ped-up!D,/F,/ | %97
!ped! =D,/F,/D,/F,/D,/F,/ D,/F,/D,/F,/!ped-up!D,/F,/ |!p! C,3 G,,2 E, | D,3 G,,2 F, | %100
!f! B,3 G, z!f! D | C3- C z E, |!p! C,3 G,,2 E, | D,3 G,,2 F, |!f! B,3 G, z!f! D | C3 G, z!f! E, | %106
!ff! [C,,-C,]3 [C,,G,,]2 E, | [C,,-C,]3 [C,,G,,] z E, | %108
!mp! [C,C]/"^dim."D/E/F/G/^F/[K:treble] A/G/=F/E/D/C/ | C/D/E/F/!p!G/^F/ A/G/=F/!pp!E/D/C/ | %110
 A/G/F/E/D/C/ A/G/F/E/D/C/ | A/G/F/E/D/C/ A/G/F/E/D/C/ | %112
[K:bass] A,/G,/F,/E,/D,/C,/ A,/G,/F,/E,/D,/C,/ | A,/G,/F,/E,/D,/C,/!p!"^cresc."!ped! G,3 | %114
!<(! .G,.C,.C .G,.C,.C!ped-up! |!ped! .G,.C,.C .G,.C,!<)!!mf!.C!ped-up! |!p! z2 A AF[I:staff -1]c | %117
[I:staff +1] z2 A ACF | z2 A AF[I:staff -1]c | %119
[I:staff +1] z2[I:staff -1] B B[I:staff +1]F[I:staff -1]G | %120
[I:staff +1] z2[I:staff -1] B B[I:staff +1]G[I:staff -1]c | %121
[I:staff +1] z2[I:staff -1] A A[I:staff +1]F[I:staff -1]c |!ped![I:staff +1] D3!ped-up! [E,G,]2 C | %123
!ped! !arpeggio![F,,C,A,]2!ped-up! z z2 C/F/ | .[F,A,].[F,A,][K:treble] .a .a.f[K:bass] .[F,A,F] | %125
 [F,CF][F,A,F][K:treble] .a .a.c[K:bass] [F,A,] | %126
 .[F,A,].[F,A,C][K:treble] .a .a.f[K:bass] .[F,A,F] | %127
 .[D,B,F].[D,B,D][K:treble] .b .b.f[K:bass] .[E,C] | .[E,G].[E,C][K:treble] .b .b.f[K:bass] .[CE] | %129
 .[F,F].[F,C] x D x A, | [B,D][B,D] x C x2 | C/F/C/B,/A,/B,/ C/D/E/F/G/A/ | %132
!ped! .[F,,,F,,] A,/B,/A,/G,/!ped-up! F,/G,/A,/B,/C/B,/ | %133
!ped! .[F,,,F,,] A,/B,/A,/G,/!ped-up! F,/E,/F,/C,/D,/E,/ | %134
!ped! .[F,,,F,,] A,/B,/A,/G,/!ped-up! A,/B,/C/=B,/C/A,/ | %135
!ped! .[D,,D,] B,/C/D/C/!ped-up! B,/C/A,/B,/ .[E,,C,E,] | %136
!ped! .[E,,C,E,] B,/A,/G,/^F,/!ped-up! G,/A,/B,/G,/ .[C,,C,] | %137
!ped! !>![F,,F,] A,/B,/A,/G,/!ped-up!!ped! [D,,D,] F,/E,/F,/A,/!ped-up! | %138
!ped! [B,,,B,,] A,/G,/[D,F,]/G,/!ped-up!!ped! [C,,C,] D,/E,/C,/E,/!ped-up! |!f! C, F,2 C, G,2 | %140
 C, A,2 CB,!mf!G,/E,/ | %141
!ped! z/ C,/[F,A,]/C/[F,A,]/C,/!ped-up!!ped! z/ C,/[G,B,]/C/[G,B,]/C,/!ped-up! | %142
!ped! z/ C,/[F,A,]/C/[F,A,]/C,/!ped-up!!ped! z/ C,/[G,B,]/C/B,/C/!ped-up! | %143
!f! C,F, (5:4:5F,/4G,/4F,/4E,/4F,/4 C,G, (5:4:5G,/4A,/4G,/4F,/4G,/4 | %144
 C,A, (5:4:5A,/4B,/4A,/4G,/4A,/4 [G,,D,]2 .F,/.D,/ | %145
!mp!!ped! F,/C/F,/C/!ped-up!F,/C/!ped! [=B,,F,]2!ped-up!!f! .=B,/.G,/ | %146
!ped! E/!mf!G,/E/G,/!ped-up!E/G,/!ped! =B,/G,/B,/G,/!ped-up!F,/G,/ | %147
!ped! .[E,C].[E,,E,]!ped-up! .[E,G,C]!ped! .[F,A,C].[F,,F,]!ped-up! .[F,A,C] | %148
!ped! .[G,B,E].[G,,G,]!ped-up!.[G,B,E]!ped! .[_A,DF].[C,,C,]!ped-up!.[F,A,=B,] | %149
!ff!!ped! [C,F,=A,C]6!ped-up! | %150
!ff!!ped! [D,D][C,C]!ped-up!.[A,,A,]/.[F,,F,]/!ped! [D,,D,][C,,C,]!ped-up!.A,,/.F,,/ | %151
!ped! [C,,E,,G,,C,]6!ped-up!!ped!!ped-up! | %152
!ped! [C,C][B,,B,]!ped-up!!ff!.[G,,G,]/.[E,,E,]/ [C,,C,][B,,,B,,].[G,,,G,,]/.E,,/ | %153
 [C,,F,,A,,C,]6 | %154
!ff!!ped! [D,D]/[C,C]/.[=B,,=B,]/!ped-up!.[C,C]/.[A,,A,]/.[F,,F,]/!ped! [D,,D,]/[C,,C,]/[=B,,,B,,]/[C,,C,]/!ped-up!.A,,/.F,,/ | %155
 [C,,E,,G,,C,]6 | %156
!ped! !^![C,C]/[B,,B,]/!ped-up!.[A,,A,]/.[B,,B,]/!ff!.[G,,G,]/.[E,,E,]/ [C,,C,]/[B,,,B,,]/[G,,,G,,]/E,,/.C,,/.C,/ | %157
 .[F,,,F,,] z z z z B,/D/ | A,/C/G,/C/F,/C/ C/C,,/E,,/G,,/C,/E,/ | %159
 [F,,A,,F,]/!p! x3/2 A, B,/F,/A,/F,/B,/F,/ | %160
 A,/C,/G,/C,/F,/C,/!ped! C,/G,,/C,/E,/ C,,/E,/!ped-up! | %161
!ped! [F,,A,,F,]3 [F,A,C]!ped-up! z .[F,,A,,F,] | %162
!ped! [B,,,G,,B,,]3 [G,B,D]!ped-up! z .[B,,,G,,B,,] |!ped! [C,,F,,A,,C,]2 z [C,F,A,]3- | %164
 [C,F,A,]6- | [C,F,A,]3 [D,F,A,]3- | [D,F,A,]3!ped-up!!ped! [G,,F,=B,]3- | [G,,F,B,]6 | %168
!p! =B,3 G,2 D | =B,3 G,2 F |!p!"_cresc." [=B,D]G,[I:staff -1]=B [DF]=B,d | %171
 [F=B]Df [Bd]G[I:staff +1] G,!ped-up! |!ped! E,C,C [E,G,]C,E | [G,C]E,G [CE]G, [G,,,G,,]!ped-up! | %174
 [E,,,E,,][C,,,C,,][G,,,G,,] [E,,,E,,][E,,E,][G,,,G,,] | %175
 [G,,G,][C,,C,][C,C] .[C,,C,].[C,C].[C,,C,] |!ff!!ped! !^!A,3!ped-up! .F, z .C | A,3- A,2!p! C, | %178
 F,2 A, C2 A, | B,3- B,2 C, | E,2 G, B,2 G, | A,[I:staff -1]CC CA,A, | A,[I:staff +1]^F,F, F,D,D, | %183
 D,[I:staff -1]B,B, B,G,G, | G,[I:staff +1]E,E, E,C,C, |!ped! F,2 C, F,2 A,!ped-up! | %186
!ped![I:staff -1] [^FA][I:staff +1][A,D^F][A,DF] [A,DF][^F,A,D][D,D]!ped-up! | %187
!ped! G,2 [G,,-B,,] [G,,E,]2 F,!ped-up! | %188
!ped![I:staff -1] [EG][I:staff +1][G,B,E][G,B,E] [G,B,E][C,E,C][C,C]!ped-up! | %189
!ped! x [A,CF][CFA] [FAc]2!ped-up! x | [A,,C,F,A,]2 [C,F,A,C] [F,A,CF]2 .[F,,F,] | %191
!ped! D,[A,DF][DFA] [FAd]2!ped-up! x | [F,,A,,D,F,]2 [A,,D,F,A,] [D,F,A,D]2 .[D,,D,] | %193
!ped! [G,,=B,,D,G,][K:treble] [=B,DG][DG=B] [GBd]2!ped-up![K:bass]!ff! [G,,B,,D,G,] | %194
"_dim." [=B,,D,G,=B,]2 [D,G,B,D] [G,B,DG]2 .[G,,,G,,] | %195
!pp!!ped! z/ =B,/G,/B,/G,/B,/ !//-!G,3/2 B,3/2 | z/ =B,/G,/B,/G,/B,/[I:staff -1] F/D/F/D/=B/G/ | %197
"_cresc." =B/G/B/G/d/B/ d/B/d/B/f/d/ | !//-!f3 d3!ped-up! |!ped! !//-!g3/2 e3/2 !//-!e3/2 c3/2 | %200
 !//-!c3/2 G3/2 !//-!G3/2 E3/2 |[I:staff +1] CB,CB,G,B, | G,E,G, E,C,!f! [E,,E,] | %203
 [C,,C,][B,,,B,,][C,,C,] [B,,,B,,][G,,,G,,].[B,,B,] | %204
 .[G,,G,].[E,,E,].[C,,C,] .G,,.C,,.C,!ped-up! | !^!A,/!>(!B,/A,/G,/F,/E,/ F,/G,/A,/B,/C/B,/ | %206
 A,/B,/A,/G,/F,/E,/ F,/E,/F,/!>)!!p!C,/D,/E,/ | F,/G,/F,/E,/F,/G,/ A,/B,/C/=B,/C/A,/ | %208
 _B,/C/D/C/B,/C/ B,/C/B,/A,/G,/F,/ | E,/F,/E,/D,/E,/F,/ G,/A,/B,/A,/B,/G,/ | %210
 A,C[I:staff -1]C CA,A, |[I:staff +1] D,/E,/D,/^C,/D,/E,/ ^F,D,D, | G, x2 B,G,_B, | %213
 G,E,.E, E,C,.C, | [F,,C,][F,,F,][_E,,_E,] [D,,D,] x D |[I:staff -1] A[I:staff +1]^F x4 | %216
 [G,B,D][K:treble][DGB].[DGB] [DGB][K:bass][G,B,G].[G,B,G] | %217
 [CEG][G,CE].[G,CE] [C,E,C]3/2 [B,,,B,,]/[A,,,A,,]/[G,,,G,,]/ | %218
!fff!!ped! !>![F,,,F,,]2 [A,,,A,,] [C,,F,,A,,C,]2 [F,,A,,C,F,]!ped-up! | %219
!ped! [A,,C,F,A,]2 [C,F,A,C]!ped-up! .[F,A,CF] z .[F,,,F,,] | %220
!ped! [D,,,D,,]2 [F,,,F,,] [A,,,D,,F,,A,,]2 [D,,F,,A,,D,]!ped-up! | %221
!ped! [F,,A,,D,F,]2 [A,,D,F,A,]!ped-up! .[D,F,A,D] z .[D,,D,] | %222
!ped! [G,,,G,,]2 [=B,,,=B,,] [D,,G,,B,,D,]2 [G,,B,,D,G,]!ped-up! | %223
!ped! [=B,,D,F,=B,]2 [D,F,B,D]!ped-up! .[G,B,DG] z .[G,,,G,,] | %224
!ped! [C,,,C,,]2 [G,,,G,,] [C,,E,,G,,C,]2 [G,,C,E,G,]!ped-up! | %225
!ped! [C,E,G,C]2 [E,G,CE]!ped-up! .[G,CEG] z .[C,,C,] | %226
!ped! [F,,,A,,,C,,F,,]2 [A,,,C,,F,,A,,] [C,,F,,A,,C,]2 [F,,A,,C,F,]!ped-up! | %227
!ped! [A,,C,F,A,]2 [C,F,A,C]!ped-up! .[F,A,CF] z .[F,,,F,,] | %228
!ped! [F,,,B,,,F,,]2 [B,,,F,,B,,] [D,,F,,B,,D,]2 [F,,B,,D,F,]!ped-up! | %229
!ped! [B,,D,F,B,]2 [D,F,B,D]!ped-up! .[F,B,DF] z .[F,,,F,,] | %230
!ped! !>![F,,,F,,]2 [B,,,B,,] [C,,C,]2 [E,,E,]!ped-up! | %231
!ped! [B,,B,]2 [C,C] [E,E]2 !>![F,,F,]!ped-up! |!ped! [B,,B,]2 [C,C] [E,E]2 !>![F,,,F,,]!ped-up! | %233
!ped! [B,,,B,,]2 [C,,C,] [E,,E,]!>![F,,,F,,][B,,,B,,]!ped-up! | %234
!ped! [C,,C,][E,,E,]!>![F,,,F,,]!ped-up!!ped! [B,,,B,,][C,,C,][E,,E,] | %235
 !>![F,,,F,,][B,,,B,,][C,,C,]!ped-up!!ped! [E,,E,][B,,,B,,][C,,C,]!ped-up! | F,6 | [C,G,]6 | %238
 [C,,E,]6 | !>![F,,F,]6 | [F,A,]3 [D,F,B,]2 [A,,F,A,] | [B,,F,G,]6 | [C,E,G,]6 | [F,,F,]2 z4 | %244
 [F,,F,]3 .[D,,D,] z .[A,,,A,,] |!ped! [B,,,B,,]3- [B,,,B,,]2!ped-up! [B,,G,D] | %246
!ped! [C,G,E]6!ped-up! | [F,A,F]2 z z2 [F,A,] |!ped! [C,G,]3- [C,G,]2!ped-up! [C,G,] | %249
 [F,A,]2 z z2 [F,A,CF] |!ped! [C,G,CE]3- [C,G,CE]2!ped-up! [C,G,CE] | [F,A,CF]2 z z2 [F,,A,] | %252
!ped! [C,E,G,B,]3- [C,E,G,B,]2!ped-up! [C,E,G,B,] | [C,G,B,E]6- | [C,-G,-B,E-]6 | %255
"^dim." [C,G,E]6- | [C,G,E]6 |!p!!ped! [F,,C,A,]6 | [F,,C,A,]6!ped-up! | %259
!ped!!p! F3!ped-up!!ped! C2!ped-up! A |!ped! F3!ped-up!!ped! C2!ped-up! A | %261
!ped! FC!ped-up!A!ped! FC!ped-up!A | %262
!pp!!ped! F,,/G,,/A,,/B,,/!ped-up!C,/=B,,/!ped! D,/C,/_B,,/A,,/!ped-up!!ff! .[F,,F,] | %263
 .[F,,,F,,]2 z z2 z |] %264
V:4
 [C,G,]6- | [C,G,]6 | x6 | x6 | x6 | x6 | x6 | x6 | F,3- F,2 F, | F,3- F,2 F, | x6 | x6 | %12
 E,3- E,2 C, | F,3 D,2 A,, | [B,,F,]3 [C,E,]3 | x6 | x6 | x6 | x6 | x6 | x6 | x6 | x6 | x6 | %24
 !arpeggio![F,,C,]6 | !arpeggio![F,,C,]6 | [F,,F,-]3 F,3 | [D,F,]3- [D,F,]2 E, | E,3 E,2 C, | %29
 F,3 D,2 A,, | B,,3 C,3 | x6 | x3 z2 B,, | A,,3 E,3 | F,3 C,2 C, | x6 | x3 z2 B,, | A,,3 [E,,E,]3 | %38
 F,,3 G,,2 G,, | A,,3 x x2 | C,3 D2 D, | x6 | x6 | x6 | x6 | G,,6 | x6 | x6 | x6 | x6 | %50
 x3 G,,2 G, | x6 | x3 G,,,2 G, | x6 | x6 | x6 | x6 | x6 | x6 | x6 | x3 [F,,C,]3- | [F,,C,]6 | x6 | %63
 F,3- F,2 F, | F,3- F,2 F, | F,3- F,2 F, | D,3- D,2 E, | E,3- E,2 [C,E,] | F,3 D,2 A,, | %69
 B,,3 C,2 [C,E,] | F,3- F,2 x | x6 | x6 | x6 | x6 | x6 | x6 | x6 | x6 | [B,,,B,,]/ z3/2 z z2 z | %80
 z3 z2 F,, | C,2 z z3 | z3 z3/2 F,,3/2 | F,2 z z3 | z3 z3/2 F,,3/2 | B,,2 z z2 B,, | _E,,2 z z3 | %87
 B,,2 z z2 B,, | F,,2 z z2 F, | x6 | _E,,2 z z2 E,, | F,,2 z z2 F,, | _G,,3 G,,2 G,, | _A,,6 | %94
 _A,,2 z z2 A,, | =A,,2 z z2 A,, | B,,2 z z2 B,, | =B,,2 z z2 G,, | C,,3- C,,2 z | C,,3- C,,2 z | %100
 [C,F,]3- [C,F,] z [C,F,G,] | [C,E,]3- [C,E,] z E, | C,,3- C,,2 z | C,,3- C,,2 C, | %104
 [C,F,]3- [C,F,] z [C,F,G,] | [C,E,]3- [C,E,] z E, | x6 | x6 | x3[K:treble] x3 | x6 | x6 | x6 | %112
[K:bass] x6 | x3 [F,,C,]3- | [F,,-C,]6 | F,,6 | [A,C]6 | [A,C]6 | [A,C]6 | %119
 [D,F,B,D]3- [D,F,B,D]2 [E,G,B,C] | [E,G,B,C]3- [E,G,B,C]2 [E,G,B,C] | %121
 [F,A,C]3 [D,F,A,D]2 [A,,F,A,] | !arpeggio![B,,F,G,]3 C,2 C, | x6 | x2[K:treble] x3[K:bass] x | %125
 x2[K:treble] x3[K:bass] x | x2[K:treble] x3[K:bass] x | x2[K:treble] x3[K:bass] x | %128
 x2[K:treble] x3[K:bass] x | x6 | x6 | F, x x4 | x2 x !^![A,,C,] x2 | x2 x !^![A,,C,] x2 | %134
 x2 x !^![C,F,] x2 | x2 x !^![D,F,] x2 | x2 x !^![C,E,] x2 | x6 | x6 | F,,2 x4 | x4 z B,, | %141
 [A,,,A,,]2 x [E,,E,]2 x | [F,,F,]2 x [C,,C,]2 C, | x6 | F,,2 x2 x [G,,=B,,] | %145
 [A,,C,]2 [A,,C,] x2 [=B,,D,] | !arpeggio![C,E,G,]2 x [D,F,]2 D, | x6 | x6 | x3 DC.A,/.F,/ | x6 | %151
 x3 !^!CB,.G,/.E,/ | x6 | x3 .D/.C/.=B,/.C/.A,/.F,/ | x6 | x3 !^!C/B,/.A,/.B,/.G,/.E,/ | x6 | %157
 x x x x x B, | A,G,F, [C,E,C]2 C,, | x/ F,/E,/F,/G,/F,/ D,C,B,, | A,,G,,F,, C,,2 C,, | x6 | x6 | %163
 x6 | x6 | x6 | x6 | x6 | x6 | x6 | x6 | x6 | x6 | x6 | x6 | x6 | !arpeggio![F,,C,]2 x4 | x6 | x6 | %179
 x6 | x4 x C,, | F,,2 z z2 F,, | D,,2 z z2 D,, | G,,2 z z2 G,,, | C,,2 z z2 C,, | F,,2 x4 | %186
 [D,C]4 x2 | x6 | [C,B,]4 x2 | [F,,A,,C,F,]3- [F,,A,,C,F,]2 [F,,A,,C,F,] | x6 | %191
 [D,,F,,A,,D,]3- [D,,F,,A,,D,]2 [D,,F,,A,,D,] | x6 | x[K:treble] x4[K:bass] x | x6 | G,,2 x4 | %196
 G,,2 x G,/=B,/G,/B,/[G,D]/F/ | [G,D]/F/[G,D]/F/[G,=B,D]/F/ [G,B,D]/F/[G,B,D]/F/[G,B,D]/F/ | %198
 !//-![G,=B,D]3 F3 | x [E,G,C]/E/[E,G,C]/E/ !//-![E,G,C]3/2 E3/2 | %200
 !//-![E,G,C]3/2 E3/2 !//-![E,G,]3/2 C3/2 | x6 | x6 | x6 | x6 | !arpeggio![F,,C,]2 x4 | x6 | x6 | %208
 x6 | x6 | x4 z/"_cresc." G,/^F,/E,/ | x3 ^F,/G,/A,/G,/A,/F,/ | %212
 [G,,G,]/^F,/G,/A,/G,/A,/ B,/A,/B,/=B,/G,/=B,/ | C,2 x3 C,, | x6 | %215
 D[A,D].[A,D^F] [A,DF][D,^F,D].[D,F,D] | x[K:treble] x3[K:bass] x2 | x6 | x6 | x6 | x6 | x6 | x6 | %223
 x6 | x6 | x6 | x6 | x6 | x6 | x6 | x6 | x6 | x6 | x6 | x6 | x6 | !>!F,,2 x4 | x6 | x6 | x6 | x6 | %241
 x6 | x6 | x6 | x6 | x6 | x6 | x6 | x6 | x6 | x6 | x6 | x6 | %253
 x2!ff! .[C,,,C,,]"_marcato e staccato" .[E,,,E,,]2 .[G,,,G,,] | %254
 [B,,,B,,]2 .[C,,C,] .[E,,E,]2 .[G,,G,] | [B,,B,]2 .[G,,G,] .[E,,E,]2 .[C,,C,] | %256
 B,,2 .G,, .E,,2 .C,, | x6 | x6 | x6 | x6 | x6 | x6 | x6 |] %264
V:5
 x6 | x6 | x6 | x6 | x6 | x6 | x6 | x6 | x6 | x6 | x6 | x6 | x6 | x6 | x6 | x6 | x6 | x6 | x6 | %19
 x6 | x6 | x6 | x6 | x6 | x6 | x6 | x6 | x6 | x6 | x6 | x6 | x6 | x6 | x6 | x6 | x6 | x6 | x6 | %38
 x6 | x6 | x6 | x6 | x6 | x6 | x6 | x6 | x6 | x6 | x6 | x6 | x6 | x6 | x6 | x6 | x6 | x6 | x6 | %57
 x6 | x6 | x6 | x6 | x6 | x6 | x6 | x6 | x6 | x6 | x6 | x6 | x6 | x6 | x6 | x6 | x6 | x6 | x6 | %76
 x6 | x6 | x6 | x6 | x6 | x6 | x6 | x6 | x6 | x6 | x6 | x6 | x6 | x6 | x6 | x6 | x6 | x6 | x6 | %95
 x6 | x6 | x6 | x6 | x6 | x6 | x6 | x6 | x6 | x6 | x6 | x6 | x6 | x3[K:treble] x3 | x6 | x6 | x6 | %112
[K:bass] x6 | x6 | x6 | x6 | F,3- F,2- F, | F,3- F,2 F, | F,3- F,2- F, | x6 | x6 | x6 | x6 | x6 | %124
 x2[K:treble] x3[K:bass] x | x2[K:treble] x3[K:bass] x | x2[K:treble] x3[K:bass] x | %127
 x2[K:treble] x3[K:bass] x | x2[K:treble] x3[K:bass] x | x6 | x6 | x6 | x6 | x6 | x6 | x6 | x6 | %137
 x6 | x6 | x6 | x6 | x6 | x6 | x6 | x6 | x6 | x6 | x6 | x6 | x6 | x6 | x6 | x6 | x6 | x6 | x6 | %156
 x6 | x6 | x6 | x6 | x6 | x6 | x6 | x6 | x6 | x6 | x6 | x6 | x6 | x6 | x6 | x6 | x6 | x6 | x6 | %175
 x6 | x6 | x6 | x6 | x6 | x6 | x6 | x6 | x6 | x6 | x6 | x6 | x6 | x6 | x6 | x6 | x6 | x6 | %193
 x[K:treble] x4[K:bass] x | x6 |[I:staff -1] !//-!F3 D3 | !//-!F3/2 D3/2[I:staff +1] x x2 | x6 | %198
 x6 | [C,,C,]2 x4 | x6 | x6 | x6 | x6 | x6 | x6 | x6 | x6 | x6 | x6 | x6 | x6 | x6 | x6 | x6 | x6 | %216
 x[K:treble] x3[K:bass] x2 | x6 | x6 | x6 | x6 | x6 | x6 | x6 | x6 | x6 | x6 | x6 | x6 | x6 | x6 | %231
 x6 | x6 | x6 | x6 | x6 | x6 | x6 | x6 | x6 | x6 | x6 | x6 | x6 | x6 | x6 | x6 | x6 | x6 | x6 | %250
 x6 | x6 | x6 | x6 | x6 | x6 | x6 | x6 | x6 | x6 | x6 | x6 | x6 | x6 |] %264
V:6
 x6 | x6 | x6 | x6 | x6 | x6 | x6 | x6 | x6 | x6 | x6 | x6 | x6 | x6 | x6 | x6 | x6 | x6 | x6 | %19
 x6 | x6 | x6 | x6 | x6 | x6 | x6 | x6 | x6 | x6 | x6 | x6 | x6 | x6 | x6 | x6 | x6 | x6 | x6 | %38
 x6 | x6 | x6 | x6 | x6 | x6 | x6 | x6 | x6 | x6 | x6 | x6 | x6 | x6 | x6 | x6 | x6 | x6 | x6 | %57
 x6 | x6 | x6 | x6 | x6 | x6 | x6 | x6 | x6 | x6 | x6 | x6 | x6 | x6 | x6 | x6 | x6 | x6 | x6 | %76
 x6 | x6 | x6 | x6 | x6 | x6 | x6 | x6 | x6 | x6 | x6 | x6 | x6 | x6 | x6 | x6 | x6 | x6 | x6 | %95
 x6 | x6 | x6 | x6 | x6 | x6 | x6 | x6 | x6 | x6 | x6 | x6 | x6 | x6 | x6 | x6 | x6 | x6 | x6 | %114
 x6 | x6 | x6 | x6 | x6 | x6 | x6 | x6 | x6 | x6 | x6 | x6 | x6 | x6 | x6 | x6 | x6 | x6 | x6 | %133
 x6 | x6 | x6 | x5!8va(! x | x!8va)! x5 | x6 | x6 | x6 | x6 | x6 | x6 | x6 | x6 | x6 |!8va(! x6 | %148
 x6 | x3!8va)! x3 | x2!8va(! x4 | x3!8va)! x3 | x2!8va(! x4 | x3!8va)! x3 | x2!8va(! x4 | %155
 x3!8va)! x3 | x2!8va(! x4!8va)! | x6 | x6 | x6 | x6 | x6 | x6 | x6 | x6 | x6 | x6 | x6 | x6 | x6 | %170
 x6 | x6 | x6 | x6 | x6 | x6 | x6 | x6 | x6 | x6 | x6 | x6 | x6 | x6 | x6 | x6 | x6 | x6 | x6 | %189
 x6 | x3!8va(! x3!8va)! | x6 | x3!8va(! x3!8va)! | x6 | x3!8va(! x3!8va)! | x6 | x6 | x6 | x6 | %199
 x6 | x6 | x6 | x6 | x6 | x3!8va(! x3!8va)! | x6 | x6 | x6 | x6 | x9/2[K:bass] x3/2 | %210
 x4[K:treble] x2 | x6 | x6 | x6 | x4 z/ c/d/e/ | x6 | x6 | x6 | x6 | x3!8va(! x3!8va)! | x6 | %221
 x3!8va(! x3!8va)! | x6 | x3!8va(! x3!8va)! | x6 | x3!8va(! x3!8va)! | x3!8va(! x3!8va)! | %227
 x3!8va(! x3 | x6 | x3!8va)! x3 | x6 | x6 | x6 | x6 | x6 | x6 | x6 | x6 | x6 | x6 | x6 | x6 | x6 | %243
 x6 | x6 | x6 | x6 | x6 | x6 | x6 | x6 | x6 | x6 | x6 | x6 | x6 | x6 | x6 | x6 | x6 | x6 | %261
[K:bass] x6 | x5[K:treble] x | x6 |] %264

